X: 76
T: No_173.krn
N: Derived from No_173.krn
%%abc-version 2.0
%%abcx-abcm2ps-target-version 5.9.1 (29 Sep 2008)
%%abc-creator hum2abc beta
%%abcx-conversion-date 2019/03/15 08:29:13
%%humdrum-veritas 790388708
%%humdrum-veritas-data 1247711209
%%linebreak <none>
%%barnumbers 0
L: 1/8
M: 3/4
%%staves {1 2}
V: 1 clef=bass
V: 2 clef=bass
K: F
[V:1] [K:clef=bass][M:3/4]D3FD2 ||  
[V:2] [K:clef=bass][M:3/4]G,,/!accent!G,, z/ G,,/!accent!G,, z/ G,,/!accent!G,, z/ ||  
[V:1] [M:2/4]DA, DA, | 
[V:2] [M:2/4]z4 | 
[V:1] F,2D,2 | 
[V:2] z4 | 
[V:1] D,D,D,2 | 
[V:2] z4 | 
[V:1] F,3D | 
[V:2] z4 | 
[V:1] A,2F,2 | 
[V:2] z4 | 
[V:1] D,2D,D, | 
[V:2] z4 | 
[V:1] D,4 | 
[V:2] z4 | 
[V:1] B,2F,2 | 
[V:2] z4 | 
[V:1] E,D, D,B,, ||  
[V:2] z4 ||  
[V:1] [M:3/4]D,3B,G,2 | 
[V:2] [M:3/4]z6 | 
[V:1] D,6 |]  
[V:2] z6 |]  



